X: 12
T:Tripping Upstairs
M:6/8
Q:3/8=120
R:jig
K:D
A|"D"FAA "G"GBB|"D"FAd fed|"A7"cBc ABc|"D"dfe "G"dcB|
"D"FAA "G"GBB|"D"FAd fed|"A7"cBc ABc|"D"dfe d2:|
|:c|"Bm"dBB fBB|"Bm"dBd fed|"A"cAA eAA|cBc edc|
"Bm"dBB fBB|"Bm"dBd fed|"A7"cBc ABc|"D"dfe d2:|
%%newpage
